X: 22134
T: Kushka's
R: reel
M: 4/4
K: Eminor
|:eA ~A2 cAeA|aged eA ~A2|dG ~G2 dGeG|dG ~G2 AGed|
eA ~A2 cAeA|aged eA ~A2|gddd gdad|gede cA {c/}Ac:|
|:aged eA ~A2|cAeA cA ~A2|gddd gdad|gd ~d2 aged|
eA ~A2 cAeA|aged eA ~A2|gddd gdad|gede cA {c/}Ac:|

